; generated by PrusaSlicer 2.3.1+linux-x64 on 2021-06-11 at 10:37:34 UTC


;
;

;
;
; 

; external perimeters extrusion width = 0.45mm
; perimeters extrusion width = 0.45mm
; infill extrusion width = 0.45mm
; solid infill extrusion width = 0.45mm
; top infill extrusion width = 0.40mm
; first layer extrusion width = 0.42mm

M73 P0 R61
M201 X1250 Y1250 Z400 E5000 ; sets maximum accelerations, mm/sec^2
M203 X180 Y180 Z12 E80 ; sets maximum feedrates, mm/sec
M204 P1250 R1250 T1250 ; sets acceleration (P, T) and retract acceleration (R), mm/sec^2
M205 X8.00 Y8.00 Z2.00 E10.00 ; sets the jerk limits, mm/sec
M205 S0 T0 ; sets the minimum extruding and travel feed rate, mm/sec
M107
;TYPE:Custom
G90 ; use absolute coordinates
M83 ; extruder relative mode
M104 S170 ; set extruder temp for bed leveling
M140 S60 ; set bed temp
M109 R170 ; wait for bed leveling temp
M190 S60 ; wait for bed temp
G28 ; home all without mesh bed level
G29 ; mesh bed leveling 
M104 S215 ; set extruder temp
G92 E0.0
G1 Y-2.0 X179 F2400
G1 Z3 F720
M109 S215 ; wait for extruder temp

; intro line
G1 X170 F1000
G1 Z0.2 F720
G1 X110.0 E8.0 F900
G1 X40.0 E10.0 F700
G92 E0.0

M221 S95 ; set flow
G21 ; set units to millimeters
G90 ; use absolute coordinates
M83 ; use relative distances for extrusion
M900 K0.2 ; Filament gcode LA 1.5
; ; Filament gcode LA 1.0
;LAYER_CHANGE
;Z:0.2
;HEIGHT:0.2
;BEFORE_LAYER_CHANGE
G92 E0.0
;0.2


G1 E-3.20000 F4200.000
G1 Z0.200 F9000.000
;AFTER_LAYER_CHANGE
;0.2
G1 Z0.400
G1 X71.478 Y60.393
M73 P0 R60
G1 Z0.200
G1 E3.20000 F2400.000
M204 S800
;TYPE:Skirt
;WIDTH:0.42
G1 F1200.000
G1 X71.949 Y60.022 E0.01882
G1 X72.499 Y59.780 E0.01882
G1 X73.095 Y59.684 E0.01894
G1 X106.831 Y59.683 E1.05777
G1 X107.719 Y59.857 E0.02837
G1 X108.481 Y60.352 E0.02849
G1 X108.999 Y61.094 E0.02837
G1 X109.203 Y61.979 E0.02849
G1 X109.205 Y117.951 E1.75498
G1 X109.122 Y118.561 E0.01929
G1 X108.886 Y119.129 E0.01929
G1 X108.519 Y119.610 E0.01894
G1 X108.041 Y119.984 E0.01906
G1 X107.483 Y120.225 E0.01906
G1 X106.882 Y120.316 E0.01906
G1 X73.150 Y120.317 E1.05765
G1 X72.548 Y120.233 E0.01906
G1 X71.983 Y119.998 E0.01917
G1 X71.497 Y119.627 E0.01917
G1 X71.123 Y119.143 E0.01917
G1 X70.883 Y118.581 E0.01917
G1 X70.796 Y117.975 E0.01917
G1 X70.795 Y62.049 E1.75354
G1 X70.878 Y61.439 E0.01929
G1 X71.114 Y60.871 E0.01929
G1 X71.442 Y60.441 E0.01694
M204 S1250
; printing object SpaceCenter Rocket Tall.stl id:0 copy 0
G1 E-2.24000 F4200.000
;WIPE_START
G1 F7200.000
G1 X71.949 Y60.022 E-0.36491
G1 X72.499 Y59.780 E-0.33262
G1 X72.881 Y59.719 E-0.21447
;WIPE_END
G1 E-0.04800 F4200.000
G1 Z0.400 F9000.000
G1 X91.432 Y82.877
G1 Z0.200
G1 E3.20000 F2400.000
M204 S800
;TYPE:Perimeter
G1 F1200.000
G1 X98.601 Y82.877 E0.22475
G1 X98.601 Y94.391 E0.36102
G1 X91.432 Y94.391 E0.22475
G1 X91.432 Y82.937 E0.35914
M204 S1250
G1 X91.809 Y83.254 F9000.000
M204 S800
;TYPE:External perimeter
G1 F1200.000
G1 X98.224 Y83.254 E0.20111
G1 X98.224 Y94.014 E0.33737
G1 X91.809 Y94.014 E0.20111
G1 X91.809 Y83.314 E0.33549
M204 S1250
G1 X91.738 Y82.860 F9000.000
G1 E-2.24000 F4200.000
;WIPE_START
G1 F7200.000
G1 X93.455 Y83.299 E-0.91200
;WIPE_END
G1 E-0.04800 F4200.000
G1 Z0.400 F9000.000
G1 X106.040 Y62.847
G1 Z0.200
G1 E3.20000 F2400.000
M204 S800
;TYPE:Perimeter
G1 F1200.000
G1 X106.040 Y117.153 E1.70272
G1 X73.960 Y117.153 E1.00587
G1 X73.960 Y62.847 E1.70272
M73 P1 R60
G1 X105.980 Y62.847 E1.00399
M204 S1250
G1 X106.418 Y62.470 F9000.000
M204 S800
;TYPE:External perimeter
G1 F1200.000
G1 X106.418 Y117.530 E1.72637
G1 X73.582 Y117.530 E1.02952
G1 X73.582 Y62.470 E1.72637
G1 X106.358 Y62.470 E1.02764
M204 S1250
G1 X106.346 Y62.864 F9000.000
G1 X105.164 Y62.960
M204 S800
;TYPE:Solid infill
;WIDTH:0.420671
G1 F1200.000
G1 X105.758 Y63.554 E0.02639
G1 X105.758 Y64.088 E0.01678
G1 X104.799 Y63.130 E0.04258
G1 X104.265 Y63.130 E0.01678
G1 X105.758 Y64.623 E0.06631
G1 X105.758 Y65.157 E0.01678
G1 X103.731 Y63.130 E0.09004
G1 X103.196 Y63.130 E0.01678
G1 X105.758 Y65.691 E0.11377
G1 X105.758 Y66.225 E0.01678
G1 X102.662 Y63.130 E0.13750
G1 X102.128 Y63.130 E0.01678
G1 X105.758 Y66.760 E0.16123
G1 X105.758 Y67.294 E0.01678
G1 X101.594 Y63.130 E0.18496
G1 X101.060 Y63.130 E0.01678
G1 X105.758 Y67.828 E0.20869
G1 X105.758 Y68.362 E0.01678
G1 X100.525 Y63.130 E0.23242
G1 X99.991 Y63.130 E0.01678
G1 X105.758 Y68.896 E0.25615
G1 X105.758 Y69.431 E0.01678
G1 X99.457 Y63.130 E0.27988
G1 X98.923 Y63.130 E0.01678
G1 X105.758 Y69.965 E0.30361
G1 X105.758 Y70.499 E0.01678
G1 X98.388 Y63.130 E0.32734
G1 X97.854 Y63.130 E0.01678
G1 X105.758 Y71.033 E0.35107
G1 X105.758 Y71.568 E0.01678
G1 X97.320 Y63.130 E0.37480
G1 X96.786 Y63.130 E0.01678
G1 X105.758 Y72.102 E0.39854
G1 X105.758 Y72.636 E0.01678
G1 X96.252 Y63.130 E0.42227
G1 X95.717 Y63.130 E0.01678
G1 X105.758 Y73.170 E0.44600
G1 X105.758 Y73.704 E0.01678
G1 X95.183 Y63.130 E0.46973
G1 X94.649 Y63.130 E0.01678
G1 X105.758 Y74.239 E0.49346
G1 X105.758 Y74.773 E0.01678
G1 X94.115 Y63.130 E0.51719
G1 X93.580 Y63.130 E0.01678
G1 X105.758 Y75.307 E0.54092
G1 X105.758 Y75.841 E0.01678
G1 X93.046 Y63.130 E0.56465
G1 X92.512 Y63.130 E0.01678
G1 X105.758 Y76.375 E0.58838
G1 X105.758 Y76.910 E0.01678
G1 X91.978 Y63.130 E0.61211
G1 X91.444 Y63.130 E0.01678
G1 X105.758 Y77.444 E0.63584
G1 X105.758 Y77.978 E0.01678
G1 X90.909 Y63.130 E0.65957
G1 X90.375 Y63.130 E0.01678
G1 X105.758 Y78.512 E0.68330
G1 X105.758 Y79.047 E0.01678
G1 X89.841 Y63.130 E0.70703
G1 X89.307 Y63.130 E0.01678
G1 X105.758 Y79.581 E0.73076
G1 X105.758 Y80.115 E0.01678
G1 X88.772 Y63.130 E0.75449
G1 X88.238 Y63.130 E0.01678
G1 X105.758 Y80.649 E0.77822
G1 X105.758 Y81.183 E0.01678
G1 X87.704 Y63.130 E0.80195
G1 X87.170 Y63.130 E0.01678
G1 X105.758 Y81.718 E0.82568
M73 P2 R60
G1 X105.758 Y82.252 E0.01678
G1 X86.636 Y63.130 E0.84941
G1 X86.101 Y63.130 E0.01678
G1 X105.758 Y82.786 E0.87314
M73 P2 R59
G1 X105.758 Y83.320 E0.01678
G1 X85.567 Y63.130 E0.89687
G1 X85.033 Y63.130 E0.01678
G1 X105.758 Y83.855 E0.92060
G1 X105.758 Y84.389 E0.01678
G1 X84.499 Y63.130 E0.94433
G1 X83.964 Y63.130 E0.01678
G1 X105.758 Y84.923 E0.96807
G1 X105.758 Y85.457 E0.01678
G1 X83.430 Y63.130 E0.99180
G1 X82.896 Y63.130 E0.01678
G1 X105.758 Y85.991 E1.01553
G1 X105.758 Y86.526 E0.01678
G1 X82.362 Y63.130 E1.03926
G1 X81.828 Y63.130 E0.01678
G1 X105.758 Y87.060 E1.06299
G1 X105.758 Y87.594 E0.01678
G1 X81.293 Y63.130 E1.08672
G1 X80.759 Y63.130 E0.01678
G1 X105.758 Y88.128 E1.11045
G1 X105.758 Y88.663 E0.01678
G1 X80.225 Y63.130 E1.13418
G1 X79.691 Y63.130 E0.01678
G1 X105.758 Y89.197 E1.15791
G1 X105.758 Y89.731 E0.01678
G1 X79.156 Y63.130 E1.18164
G1 X78.622 Y63.130 E0.01678
G1 X98.087 Y82.594 E0.86461
G1 X97.552 Y82.594 E0.01678
G1 X78.088 Y63.130 E0.86461
G1 X77.554 Y63.130 E0.01678
G1 X97.018 Y82.594 E0.86461
G1 X96.484 Y82.594 E0.01678
G1 X77.020 Y63.130 E0.86461
G1 X76.485 Y63.130 E0.01678
G1 X95.950 Y82.594 E0.86461
G1 X95.415 Y82.594 E0.01678
G1 X75.951 Y63.130 E0.86461
G1 X75.417 Y63.130 E0.01678
G1 X94.881 Y82.594 E0.86461
G1 X94.347 Y82.594 E0.01678
G1 X74.883 Y63.130 E0.86461
M73 P3 R59
G1 X74.349 Y63.130 E0.01678
G1 X93.813 Y82.594 E0.86461
G1 X93.279 Y82.594 E0.01678
G1 X74.242 Y63.558 E0.84560
G1 X74.242 Y64.092 E0.01678
G1 X92.744 Y82.594 E0.82187
G1 X92.210 Y82.594 E0.01678
G1 X74.242 Y64.626 E0.79814
G1 X74.242 Y65.161 E0.01678
G1 X91.676 Y82.594 E0.77441
G1 X91.150 Y82.602 E0.01653
G1 X74.242 Y65.695 E0.75103
G1 X74.242 Y66.229 E0.01678
G1 X91.150 Y83.136 E0.75103
G1 X91.150 Y83.671 E0.01678
G1 X74.242 Y66.763 E0.75103
G1 X74.242 Y67.298 E0.01678
G1 X91.150 Y84.205 E0.75103
G1 X91.150 Y84.739 E0.01678
G1 X74.242 Y67.832 E0.75103
G1 X74.242 Y68.366 E0.01678
G1 X91.150 Y85.273 E0.75103
G1 X91.150 Y85.807 E0.01678
G1 X74.242 Y68.900 E0.75103
G1 X74.242 Y69.434 E0.01678
G1 X91.150 Y86.342 E0.75103
G1 X91.150 Y86.876 E0.01678
G1 X74.242 Y69.969 E0.75103
G1 X74.242 Y70.503 E0.01678
G1 X91.150 Y87.410 E0.75103
G1 X91.150 Y87.944 E0.01678
G1 X74.242 Y71.037 E0.75103
G1 X74.242 Y71.571 E0.01678
G1 X91.150 Y88.479 E0.75103
G1 X91.150 Y89.013 E0.01678
G1 X74.242 Y72.105 E0.75103
G1 X74.242 Y72.640 E0.01678
G1 X91.150 Y89.547 E0.75103
G1 X91.150 Y90.081 E0.01678
G1 X74.242 Y73.174 E0.75103
G1 X74.242 Y73.708 E0.01678
G1 X91.150 Y90.615 E0.75103
M73 P3 R58
G1 X91.150 Y91.150 E0.01678
G1 X74.242 Y74.242 E0.75103
G1 X74.242 Y74.777 E0.01678
G1 X91.150 Y91.684 E0.75103
G1 X91.150 Y92.218 E0.01678
G1 X74.242 Y75.311 E0.75103
G1 X74.242 Y75.845 E0.01678
G1 X91.150 Y92.752 E0.75103
G1 X91.150 Y93.287 E0.01678
G1 X74.242 Y76.379 E0.75103
G1 X74.242 Y76.913 E0.01678
G1 X91.319 Y93.990 E0.75857
M204 S1250
G1 E-2.24000 F4200.000
;WIPE_START
G1 F7200.000
G1 X90.156 Y92.827 E-0.91200
;WIPE_END
G1 E-0.04800 F4200.000
G1 Z0.400 F9000.000
G1 X98.714 Y83.221
G1 Z0.200
G1 E3.20000 F2400.000
M204 S800
G1 F1200.000
G1 X105.758 Y90.265 E0.31290
G1 X105.758 Y90.799 E0.01678
G1 X98.883 Y83.925 E0.30536
G1 X98.883 Y84.459 E0.01678
G1 X105.758 Y91.334 E0.30536
G1 X105.758 Y91.868 E0.01678
G1 X98.883 Y84.994 E0.30536
M73 P4 R58
G1 X98.883 Y85.528 E0.01678
G1 X105.758 Y92.402 E0.30536
G1 X105.758 Y92.936 E0.01678
G1 X98.883 Y86.062 E0.30536
G1 X98.883 Y86.596 E0.01678
G1 X105.758 Y93.471 E0.30536
G1 X105.758 Y94.005 E0.01678
G1 X98.883 Y87.131 E0.30536
G1 X98.883 Y87.665 E0.01678
G1 X105.758 Y94.539 E0.30536
G1 X105.758 Y95.073 E0.01678
G1 X98.883 Y88.199 E0.30536
G1 X98.883 Y88.733 E0.01678
G1 X105.758 Y95.607 E0.30536
G1 X105.758 Y96.142 E0.01678
G1 X98.883 Y89.267 E0.30536
G1 X98.883 Y89.802 E0.01678
G1 X105.758 Y96.676 E0.30536
G1 X105.758 Y97.210 E0.01678
G1 X98.883 Y90.336 E0.30536
G1 X98.883 Y90.870 E0.01678
G1 X105.758 Y97.744 E0.30536
G1 X105.758 Y98.279 E0.01678
G1 X98.883 Y91.404 E0.30536
G1 X98.883 Y91.939 E0.01678
G1 X105.758 Y98.813 E0.30536
G1 X105.758 Y99.347 E0.01678
G1 X98.883 Y92.473 E0.30536
G1 X98.883 Y93.007 E0.01678
G1 X105.758 Y99.881 E0.30536
G1 X105.758 Y100.415 E0.01678
G1 X98.883 Y93.541 E0.30536
G1 X98.883 Y94.075 E0.01678
G1 X105.758 Y100.950 E0.30536
G1 X105.758 Y101.484 E0.01678
G1 X98.883 Y94.610 E0.30536
G1 X98.883 Y94.674 E0.00202
G1 X98.413 Y94.674 E0.01476
G1 X105.758 Y102.018 E0.32623
G1 X105.758 Y102.552 E0.01678
G1 X97.879 Y94.674 E0.34996
G1 X97.345 Y94.674 E0.01678
G1 X105.758 Y103.087 E0.37370
G1 X105.758 Y103.621 E0.01678
G1 X96.811 Y94.674 E0.39743
G1 X96.277 Y94.674 E0.01678
G1 X105.758 Y104.155 E0.42116
G1 X105.758 Y104.689 E0.01678
G1 X95.742 Y94.674 E0.44489
G1 X95.208 Y94.674 E0.01678
G1 X105.758 Y105.223 E0.46862
G1 X105.758 Y105.758 E0.01678
G1 X94.674 Y94.674 E0.49235
G1 X94.140 Y94.674 E0.01678
G1 X105.758 Y106.292 E0.51608
G1 X105.758 Y106.826 E0.01678
G1 X93.605 Y94.674 E0.53981
G1 X93.071 Y94.674 E0.01678
G1 X105.758 Y107.360 E0.56354
G1 X105.758 Y107.895 E0.01678
G1 X92.537 Y94.674 E0.58727
G1 X92.003 Y94.674 E0.01678
G1 X105.758 Y108.429 E0.61100
G1 X105.758 Y108.963 E0.01678
G1 X74.242 Y77.448 E1.39993
G1 X74.242 Y77.982 E0.01678
G1 X105.758 Y109.497 E1.39993
G1 X105.758 Y110.031 E0.01678
G1 X74.242 Y78.516 E1.39993
G1 X74.242 Y79.050 E0.01678
G1 X105.758 Y110.566 E1.39993
G1 X105.758 Y111.100 E0.01678
G1 X74.242 Y79.585 E1.39993
G1 X74.242 Y80.119 E0.01678
G1 X105.758 Y111.634 E1.39993
G1 X105.758 Y112.168 E0.01678
G1 X74.242 Y80.653 E1.39993
G1 X74.242 Y81.187 E0.01678
G1 X105.758 Y112.702 E1.39993
M73 P5 R58
G1 X105.758 Y113.237 E0.01678
G1 X74.242 Y81.721 E1.39993
G1 X74.242 Y82.256 E0.01678
G1 X105.758 Y113.771 E1.39993
G1 X105.758 Y114.305 E0.01678
G1 X74.242 Y82.790 E1.39993
G1 X74.242 Y83.324 E0.01678
G1 X105.758 Y114.839 E1.39993
G1 X105.758 Y115.374 E0.01678
G1 X74.242 Y83.858 E1.39993
G1 X74.242 Y84.393 E0.01678
G1 X105.758 Y115.908 E1.39993
M73 P5 R57
G1 X105.758 Y116.442 E0.01678
G1 X74.242 Y84.927 E1.39993
G1 X74.242 Y85.461 E0.01678
G1 X105.651 Y116.870 E1.39521
G1 X105.117 Y116.870 E0.01678
G1 X74.242 Y85.995 E1.37148
G1 X74.242 Y86.529 E0.01678
G1 X104.583 Y116.870 E1.34775
G1 X104.049 Y116.870 E0.01678
G1 X74.242 Y87.064 E1.32402
G1 X74.242 Y87.598 E0.01678
G1 X103.515 Y116.870 E1.30029
G1 X102.980 Y116.870 E0.01678
G1 X74.242 Y88.132 E1.27656
G1 X74.242 Y88.666 E0.01678
G1 X102.446 Y116.870 E1.25283
G1 X101.912 Y116.870 E0.01678
G1 X74.242 Y89.201 E1.22910
G1 X74.242 Y89.735 E0.01678
G1 X101.378 Y116.870 E1.20537
M73 P6 R57
G1 X100.843 Y116.870 E0.01678
G1 X74.242 Y90.269 E1.18164
G1 X74.242 Y90.803 E0.01678
G1 X100.309 Y116.870 E1.15791
G1 X99.775 Y116.870 E0.01678
G1 X74.242 Y91.337 E1.13418
G1 X74.242 Y91.872 E0.01678
G1 X99.241 Y116.870 E1.11045
G1 X98.707 Y116.870 E0.01678
G1 X74.242 Y92.406 E1.08672
G1 X74.242 Y92.940 E0.01678
G1 X98.172 Y116.870 E1.06299
G1 X97.638 Y116.870 E0.01678
G1 X74.242 Y93.474 E1.03926
G1 X74.242 Y94.009 E0.01678
G1 X97.104 Y116.870 E1.01553
G1 X96.570 Y116.870 E0.01678
G1 X74.242 Y94.543 E0.99179
G1 X74.242 Y95.077 E0.01678
G1 X96.036 Y116.870 E0.96806
G1 X95.501 Y116.870 E0.01678
G1 X74.242 Y95.611 E0.94433
G1 X74.242 Y96.145 E0.01678
G1 X94.967 Y116.870 E0.92060
G1 X94.433 Y116.870 E0.01678
G1 X74.242 Y96.680 E0.89687
G1 X74.242 Y97.214 E0.01678
G1 X93.899 Y116.870 E0.87314
G1 X93.364 Y116.870 E0.01678
G1 X74.242 Y97.748 E0.84941
G1 X74.242 Y98.282 E0.01678
G1 X92.830 Y116.870 E0.82568
G1 X92.296 Y116.870 E0.01678
G1 X74.242 Y98.817 E0.80195
G1 X74.242 Y99.351 E0.01678
G1 X91.762 Y116.870 E0.77822
G1 X91.228 Y116.870 E0.01678
G1 X74.242 Y99.885 E0.75449
G1 X74.242 Y100.419 E0.01678
G1 X90.693 Y116.870 E0.73076
G1 X90.159 Y116.870 E0.01678
G1 X74.242 Y100.953 E0.70703
G1 X74.242 Y101.488 E0.01678
G1 X89.625 Y116.870 E0.68330
G1 X89.091 Y116.870 E0.01678
G1 X74.242 Y102.022 E0.65957
G1 X74.242 Y102.556 E0.01678
G1 X88.556 Y116.870 E0.63584
G1 X88.022 Y116.870 E0.01678
G1 X74.242 Y103.090 E0.61211
M73 P7 R57
G1 X74.242 Y103.625 E0.01678
G1 X87.488 Y116.870 E0.58838
M73 P7 R56
G1 X86.954 Y116.870 E0.01678
G1 X74.242 Y104.159 E0.56465
G1 X74.242 Y104.693 E0.01678
G1 X86.420 Y116.870 E0.54092
G1 X85.885 Y116.870 E0.01678
G1 X74.242 Y105.227 E0.51719
G1 X74.242 Y105.761 E0.01678
G1 X85.351 Y116.870 E0.49346
G1 X84.817 Y116.870 E0.01678
G1 X74.242 Y106.296 E0.46973
G1 X74.242 Y106.830 E0.01678
G1 X84.283 Y116.870 E0.44600
G1 X83.748 Y116.870 E0.01678
G1 X74.242 Y107.364 E0.42227
G1 X74.242 Y107.898 E0.01678
G1 X83.214 Y116.870 E0.39853
G1 X82.680 Y116.870 E0.01678
G1 X74.242 Y108.432 E0.37480
G1 X74.242 Y108.967 E0.01678
G1 X82.146 Y116.870 E0.35107
G1 X81.612 Y116.870 E0.01678
G1 X74.242 Y109.501 E0.32734
G1 X74.242 Y110.035 E0.01678
G1 X81.077 Y116.870 E0.30361
G1 X80.543 Y116.870 E0.01678
G1 X74.242 Y110.569 E0.27988
G1 X74.242 Y111.104 E0.01678
G1 X80.009 Y116.870 E0.25615
G1 X79.475 Y116.870 E0.01678
G1 X74.242 Y111.638 E0.23242
G1 X74.242 Y112.172 E0.01678
G1 X78.940 Y116.870 E0.20869
G1 X78.406 Y116.870 E0.01678
G1 X74.242 Y112.706 E0.18496
G1 X74.242 Y113.240 E0.01678
G1 X77.872 Y116.870 E0.16123
G1 X77.338 Y116.870 E0.01678
G1 X74.242 Y113.775 E0.13750
G1 X74.242 Y114.309 E0.01678
G1 X76.804 Y116.870 E0.11377
G1 X76.269 Y116.870 E0.01678
G1 X74.242 Y114.843 E0.09004
G1 X74.242 Y115.377 E0.01678
G1 X75.735 Y116.870 E0.06631
G1 X75.201 Y116.870 E0.01678
G1 X74.242 Y115.912 E0.04258
G1 X74.242 Y116.446 E0.01678
G1 X74.836 Y117.040 E0.02639
M204 S1250
; stop printing object SpaceCenter Rocket Tall.stl id:0 copy 0
M106 S84.15
;LAYER_CHANGE
;Z:0.4
;HEIGHT:0.2
;BEFORE_LAYER_CHANGE
G92 E0.0
;0.4


G1 E-2.24000 F4200.000
;WIPE_START
G1 F7200.000
G1 X74.242 Y116.446 E-0.46552
G1 X74.242 Y115.912 E-0.29605
G1 X74.434 Y116.104 E-0.15043
;WIPE_END
G1 E-0.04800 F4200.000
G1 Z0.400 F9000.000
;AFTER_LAYER_CHANGE
;0.4
M104 S210 ; set temperature
G1 Z0.600
G1 X107.719 Y59.857
G1 Z0.400
G1 E3.20000 F2400.000
;TYPE:Skirt
;WIDTH:0.42
G1 X108.481 Y60.352 E0.02849
G1 X108.999 Y61.094 E0.02837
G1 X109.203 Y61.979 E0.02849
G1 X109.205 Y117.951 E1.75498
G1 X109.122 Y118.561 E0.01929
G1 X108.886 Y119.129 E0.01929
G1 X108.519 Y119.610 E0.01894
G1 X108.041 Y119.984 E0.01906
G1 X107.483 Y120.225 E0.01906
G1 X106.882 Y120.316 E0.01906
G1 X73.150 Y120.317 E1.05765
G1 X72.548 Y120.233 E0.01906
G1 X71.983 Y119.998 E0.01917
