; generated by PrusaSlicer 2.3.1+linux-x64 on 2021-06-04 at 10:45:55 UTC


;
;

;
;
; 

; external perimeters extrusion width = 0.45mm
; perimeters extrusion width = 0.45mm
; infill extrusion width = 0.45mm
; solid infill extrusion width = 0.45mm
; top infill extrusion width = 0.40mm
; first layer extrusion width = 0.42mm

M73 P0 R52
M201 X1250 Y1250 Z400 E5000 ; sets maximum accelerations, mm/sec^2
M203 X180 Y180 Z12 E80 ; sets maximum feedrates, mm/sec
M204 P1250 R1250 T1250 ; sets acceleration (P, T) and retract acceleration (R), mm/sec^2
M205 X8.00 Y8.00 Z2.00 E10.00 ; sets the jerk limits, mm/sec
M205 S0 T0 ; sets the minimum extruding and travel feed rate, mm/sec
M107
;TYPE:Custom
G90 ; use absolute coordinates
M83 ; extruder relative mode
M104 S170 ; set extruder temp for bed leveling
M140 S60 ; set bed temp
M109 R170 ; wait for bed leveling temp
M190 S60 ; wait for bed temp
G28 ; home all without mesh bed level
G29 ; mesh bed leveling 
M104 S215 ; set extruder temp
G92 E0.0
G1 Y-2.0 X179 F2400
G1 Z3 F720
M109 S215 ; wait for extruder temp

; intro line
G1 X170 F1000
G1 Z0.2 F720
G1 X110.0 E8.0 F900
G1 X40.0 E10.0 F700
G92 E0.0

M221 S95 ; set flow
G21 ; set units to millimeters
G90 ; use absolute coordinates
M83 ; use relative distances for extrusion
M900 K0.2 ; Filament gcode LA 1.5
; ; Filament gcode LA 1.0
;LAYER_CHANGE
;Z:0.2
;HEIGHT:0.2
;BEFORE_LAYER_CHANGE
G92 E0.0
;0.2


G1 E-3.20000 F4200.000
G1 Z0.200 F9000.000
;AFTER_LAYER_CHANGE
;0.2
; printing object SpaceCenter Rocket Stream LED Holder.stl id:0 copy 0
G1 Z0.400
G1 X176.675 Y16.048
G1 Z0.200
G1 E3.20000 F2400.000
M204 S800
;TYPE:Perimeter
;WIDTH:0.42
G1 F1200.000
G1 X20.634 Y172.090 E6.91914
G1 X7.379 Y158.834 E0.58776
G1 X163.420 Y2.793 E6.91914
M73 P1 R52
G1 X176.633 Y16.006 E0.58588
M204 S1250
G1 X177.209 Y16.048 F9000.000
M204 S800
;TYPE:External perimeter
G1 F1200.000
G1 X20.634 Y172.623 E6.94278
M73 P1 R51
G1 X6.846 Y158.834 E0.61141
G1 X163.420 Y2.260 E6.94278
M73 P2 R51
G1 X177.166 Y16.006 E0.60953
M204 S1250
G1 X176.918 Y16.323 F9000.000
G1 X176.395 Y16.169
M204 S800
;TYPE:Solid infill
;WIDTH:0.420466
G1 F1200.000
G1 X163.420 Y3.193 E0.57606
G1 X163.153 Y3.460 E0.01185
G1 X176.008 Y16.316 E0.57073
G1 X175.741 Y16.582 E0.01185
G1 X162.886 Y3.727 E0.57073
G1 X162.619 Y3.994 E0.01185
G1 X175.474 Y16.849 E0.57073
G1 X175.207 Y17.116 E0.01185
G1 X162.352 Y4.261 E0.57073
G1 X162.085 Y4.528 E0.01185
G1 X174.941 Y17.383 E0.57073
G1 X174.674 Y17.650 E0.01185
G1 X161.818 Y4.795 E0.57073
G1 X161.551 Y5.062 E0.01185
G1 X174.407 Y17.917 E0.57073
G1 X174.140 Y18.184 E0.01185
G1 X161.284 Y5.329 E0.57073
G1 X161.017 Y5.596 E0.01185
G1 X173.873 Y18.451 E0.57073
G1 X173.606 Y18.718 E0.01185
G1 X160.750 Y5.863 E0.57073
G1 X160.483 Y6.130 E0.01185
G1 X173.339 Y18.985 E0.57073
G1 X173.072 Y19.252 E0.01185
G1 X160.216 Y6.397 E0.57073
G1 X159.949 Y6.664 E0.01185
G1 X172.805 Y19.519 E0.57073
G1 X172.538 Y19.786 E0.01185
G1 X159.682 Y6.931 E0.57073
G1 X159.415 Y7.198 E0.01185
G1 X172.271 Y20.053 E0.57073
G1 X172.004 Y20.320 E0.01185
G1 X159.149 Y7.465 E0.57073
G1 X158.882 Y7.732 E0.01185
G1 X171.737 Y20.587 E0.57073
G1 X171.470 Y20.854 E0.01185
G1 X158.615 Y7.999 E0.57073
G1 X158.348 Y8.266 E0.01185
G1 X171.203 Y21.121 E0.57073
G1 X170.936 Y21.388 E0.01185
G1 X158.081 Y8.532 E0.57073
G1 X157.814 Y8.799 E0.01185
G1 X170.669 Y21.655 E0.57073
G1 X170.402 Y21.922 E0.01185
G1 X157.547 Y9.066 E0.57073
G1 X157.280 Y9.333 E0.01185
G1 X170.135 Y22.189 E0.57073
G1 X169.868 Y22.456 E0.01185
G1 X157.013 Y9.600 E0.57073
G1 X156.746 Y9.867 E0.01185
G1 X169.601 Y22.723 E0.57073
G1 X169.334 Y22.990 E0.01185
G1 X156.479 Y10.134 E0.57073
G1 X156.212 Y10.401 E0.01185
G1 X169.067 Y23.257 E0.57073
G1 X168.800 Y23.524 E0.01185
G1 X155.945 Y10.668 E0.57073
G1 X155.678 Y10.935 E0.01185
G1 X168.533 Y23.791 E0.57073
G1 X168.266 Y24.058 E0.01185
G1 X155.411 Y11.202 E0.57073
G1 X155.144 Y11.469 E0.01185
G1 X167.999 Y24.324 E0.57073
M73 P3 R51
G1 X167.732 Y24.591 E0.01185
G1 X154.877 Y11.736 E0.57073
G1 X154.610 Y12.003 E0.01185
G1 X167.465 Y24.858 E0.57073
G1 X167.199 Y25.125 E0.01185
G1 X154.343 Y12.270 E0.57073
G1 X154.076 Y12.537 E0.01185
G1 X166.932 Y25.392 E0.57073
G1 X166.665 Y25.659 E0.01185
G1 X153.809 Y12.804 E0.57073
G1 X153.542 Y13.071 E0.01185
G1 X166.398 Y25.926 E0.57073
G1 X166.131 Y26.193 E0.01185
G1 X153.275 Y13.338 E0.57073
G1 X153.008 Y13.605 E0.01185
G1 X165.864 Y26.460 E0.57073
G1 X165.597 Y26.727 E0.01185
G1 X152.741 Y13.872 E0.57073
G1 X152.474 Y14.139 E0.01185
G1 X165.330 Y26.994 E0.57073
G1 X165.063 Y27.261 E0.01185
G1 X152.207 Y14.406 E0.57073
G1 X151.940 Y14.673 E0.01185
G1 X164.796 Y27.528 E0.57073
G1 X164.529 Y27.795 E0.01185
G1 X151.673 Y14.940 E0.57073
G1 X151.407 Y15.207 E0.01185
G1 X164.262 Y28.062 E0.57073
M73 P3 R50
G1 X163.995 Y28.329 E0.01185
G1 X151.140 Y15.474 E0.57073
G1 X150.873 Y15.741 E0.01185
G1 X163.728 Y28.596 E0.57073
G1 X163.461 Y28.863 E0.01185
G1 X150.606 Y16.008 E0.57073
G1 X150.339 Y16.274 E0.01185
G1 X163.194 Y29.130 E0.57073
G1 X162.927 Y29.397 E0.01185
G1 X150.072 Y16.541 E0.57073
G1 X149.805 Y16.808 E0.01185
G1 X162.660 Y29.664 E0.57073
G1 X162.393 Y29.931 E0.01185
G1 X149.538 Y17.075 E0.57073
G1 X149.271 Y17.342 E0.01185
G1 X162.126 Y30.198 E0.57073
G1 X161.859 Y30.465 E0.01185
G1 X149.004 Y17.609 E0.57073
G1 X148.737 Y17.876 E0.01185
G1 X161.592 Y30.732 E0.57073
G1 X161.325 Y30.999 E0.01185
G1 X148.470 Y18.143 E0.57073
G1 X148.203 Y18.410 E0.01185
G1 X161.058 Y31.266 E0.57073
G1 X160.791 Y31.533 E0.01185
G1 X147.936 Y18.677 E0.57073
G1 X147.669 Y18.944 E0.01185
G1 X160.524 Y31.800 E0.57073
G1 X160.257 Y32.066 E0.01185
G1 X147.402 Y19.211 E0.57073
G1 X147.135 Y19.478 E0.01185
G1 X159.990 Y32.333 E0.57073
G1 X159.723 Y32.600 E0.01185
G1 X146.868 Y19.745 E0.57073
G1 X146.601 Y20.012 E0.01185
G1 X159.457 Y32.867 E0.57073
G1 X159.190 Y33.134 E0.01185
G1 X146.334 Y20.279 E0.57073
M73 P4 R50
G1 X146.067 Y20.546 E0.01185
G1 X158.923 Y33.401 E0.57073
G1 X158.656 Y33.668 E0.01185
G1 X145.800 Y20.813 E0.57073
G1 X145.533 Y21.080 E0.01185
G1 X158.389 Y33.935 E0.57073
G1 X158.122 Y34.202 E0.01185
G1 X145.266 Y21.347 E0.57073
G1 X144.999 Y21.614 E0.01185
G1 X157.855 Y34.469 E0.57073
G1 X157.588 Y34.736 E0.01185
G1 X144.732 Y21.881 E0.57073
G1 X144.465 Y22.148 E0.01185
G1 X157.321 Y35.003 E0.57073
G1 X157.054 Y35.270 E0.01185
G1 X144.198 Y22.415 E0.57073
G1 X143.931 Y22.682 E0.01185
G1 X156.787 Y35.537 E0.57073
G1 X156.520 Y35.804 E0.01185
G1 X143.665 Y22.949 E0.57073
G1 X143.398 Y23.216 E0.01185
G1 X156.253 Y36.071 E0.57073
G1 X155.986 Y36.338 E0.01185
G1 X143.131 Y23.483 E0.57073
G1 X142.864 Y23.750 E0.01185
G1 X155.719 Y36.605 E0.57073
G1 X155.452 Y36.872 E0.01185
G1 X142.597 Y24.016 E0.57073
G1 X142.330 Y24.283 E0.01185
G1 X155.185 Y37.139 E0.57073
G1 X154.918 Y37.406 E0.01185
G1 X142.063 Y24.550 E0.57073
G1 X141.796 Y24.817 E0.01185
G1 X154.651 Y37.673 E0.57073
G1 X154.384 Y37.940 E0.01185
G1 X141.529 Y25.084 E0.57073
G1 X141.262 Y25.351 E0.01185
G1 X154.117 Y38.207 E0.57073
G1 X153.850 Y38.474 E0.01185
G1 X140.995 Y25.618 E0.57073
G1 X140.728 Y25.885 E0.01185
G1 X153.583 Y38.741 E0.57073
G1 X153.316 Y39.008 E0.01185
G1 X140.461 Y26.152 E0.57073
G1 X140.194 Y26.419 E0.01185
G1 X153.049 Y39.275 E0.57073
G1 X152.782 Y39.541 E0.01185
G1 X139.927 Y26.686 E0.57073
G1 X139.660 Y26.953 E0.01185
G1 X152.515 Y39.808 E0.57073
G1 X152.248 Y40.075 E0.01185
G1 X139.393 Y27.220 E0.57073
G1 X139.126 Y27.487 E0.01185
G1 X151.981 Y40.342 E0.57073
G1 X151.715 Y40.609 E0.01185
G1 X138.859 Y27.754 E0.57073
G1 X138.592 Y28.021 E0.01185
G1 X151.448 Y40.876 E0.57073
G1 X151.181 Y41.143 E0.01185
G1 X138.325 Y28.288 E0.57073
G1 X138.058 Y28.555 E0.01185
G1 X150.914 Y41.410 E0.57073
G1 X150.647 Y41.677 E0.01185
G1 X137.791 Y28.822 E0.57073
G1 X137.524 Y29.089 E0.01185
G1 X150.380 Y41.944 E0.57073
G1 X150.113 Y42.211 E0.01185
G1 X137.257 Y29.356 E0.57073
M73 P5 R50
G1 X136.990 Y29.623 E0.01185
G1 X149.846 Y42.478 E0.57073
G1 X149.579 Y42.745 E0.01185
G1 X136.723 Y29.890 E0.57073
G1 X136.456 Y30.157 E0.01185
G1 X149.312 Y43.012 E0.57073
G1 X149.045 Y43.279 E0.01185
G1 X136.189 Y30.424 E0.57073
G1 X135.923 Y30.691 E0.01185
G1 X148.778 Y43.546 E0.57073
G1 X148.511 Y43.813 E0.01185
G1 X135.656 Y30.958 E0.57073
G1 X135.389 Y31.225 E0.01185
G1 X148.244 Y44.080 E0.57073
G1 X147.977 Y44.347 E0.01185
G1 X135.122 Y31.492 E0.57073
G1 X134.855 Y31.758 E0.01185
G1 X147.710 Y44.614 E0.57073
G1 X147.443 Y44.881 E0.01185
G1 X134.588 Y32.025 E0.57073
G1 X134.321 Y32.292 E0.01185
G1 X147.176 Y45.148 E0.57073
M73 P5 R49
G1 X146.909 Y45.415 E0.01185
G1 X134.054 Y32.559 E0.57073
G1 X133.787 Y32.826 E0.01185
G1 X146.642 Y45.682 E0.57073
G1 X146.375 Y45.949 E0.01185
G1 X133.520 Y33.093 E0.57073
G1 X133.253 Y33.360 E0.01185
G1 X146.108 Y46.216 E0.57073
G1 X145.841 Y46.483 E0.01185
G1 X132.986 Y33.627 E0.57073
G1 X132.719 Y33.894 E0.01185
G1 X145.574 Y46.750 E0.57073
G1 X145.307 Y47.017 E0.01185
G1 X132.452 Y34.161 E0.57073
G1 X132.185 Y34.428 E0.01185
G1 X145.040 Y47.283 E0.57073
G1 X144.773 Y47.550 E0.01185
G1 X131.918 Y34.695 E0.57073
G1 X131.651 Y34.962 E0.01185
G1 X144.506 Y47.817 E0.57073
G1 X144.239 Y48.084 E0.01185
G1 X131.384 Y35.229 E0.57073
G1 X131.117 Y35.496 E0.01185
G1 X143.973 Y48.351 E0.57073
G1 X143.706 Y48.618 E0.01185
G1 X130.850 Y35.763 E0.57073
G1 X130.583 Y36.030 E0.01185
G1 X143.439 Y48.885 E0.57073
G1 X143.172 Y49.152 E0.01185
G1 X130.316 Y36.297 E0.57073
G1 X130.049 Y36.564 E0.01185
G1 X142.905 Y49.419 E0.57073
G1 X142.638 Y49.686 E0.01185
G1 X129.782 Y36.831 E0.57073
G1 X129.515 Y37.098 E0.01185
G1 X142.371 Y49.953 E0.57073
G1 X142.104 Y50.220 E0.01185
G1 X129.248 Y37.365 E0.57073
G1 X128.981 Y37.632 E0.01185
G1 X141.837 Y50.487 E0.57073
G1 X141.570 Y50.754 E0.01185
G1 X128.714 Y37.899 E0.57073
G1 X128.448 Y38.166 E0.01185
G1 X141.303 Y51.021 E0.57073
M73 P6 R49
G1 X141.036 Y51.288 E0.01185
G1 X128.181 Y38.433 E0.57073
G1 X127.914 Y38.700 E0.01185
G1 X140.769 Y51.555 E0.57073
G1 X140.502 Y51.822 E0.01185
G1 X127.647 Y38.967 E0.57073
G1 X127.380 Y39.233 E0.01185
G1 X140.235 Y52.089 E0.57073
G1 X139.968 Y52.356 E0.01185
G1 X127.113 Y39.500 E0.57073
G1 X126.846 Y39.767 E0.01185
G1 X139.701 Y52.623 E0.57073
G1 X139.434 Y52.890 E0.01185
G1 X126.579 Y40.034 E0.57073
G1 X126.312 Y40.301 E0.01185
G1 X139.167 Y53.157 E0.57073
G1 X138.900 Y53.424 E0.01185
G1 X126.045 Y40.568 E0.57073
G1 X125.778 Y40.835 E0.01185
G1 X138.633 Y53.691 E0.57073
G1 X138.366 Y53.958 E0.01185
G1 X125.511 Y41.102 E0.57073
G1 X125.244 Y41.369 E0.01185
G1 X138.099 Y54.225 E0.57073
G1 X137.832 Y54.492 E0.01185
G1 X124.977 Y41.636 E0.57073
G1 X124.710 Y41.903 E0.01185
G1 X137.565 Y54.759 E0.57073
G1 X137.298 Y55.025 E0.01185
G1 X124.443 Y42.170 E0.57073
G1 X124.176 Y42.437 E0.01185
G1 X137.031 Y55.292 E0.57073
G1 X136.764 Y55.559 E0.01185
G1 X123.909 Y42.704 E0.57073
G1 X123.642 Y42.971 E0.01185
G1 X136.498 Y55.826 E0.57073
G1 X136.231 Y56.093 E0.01185
G1 X123.375 Y43.238 E0.57073
G1 X123.108 Y43.505 E0.01185
G1 X135.964 Y56.360 E0.57073
G1 X135.697 Y56.627 E0.01185
G1 X122.841 Y43.772 E0.57073
G1 X122.574 Y44.039 E0.01185
G1 X135.430 Y56.894 E0.57073
G1 X135.163 Y57.161 E0.01185
G1 X122.307 Y44.306 E0.57073
G1 X122.040 Y44.573 E0.01185
G1 X134.896 Y57.428 E0.57073
G1 X134.629 Y57.695 E0.01185
G1 X121.773 Y44.840 E0.57073
G1 X121.506 Y45.107 E0.01185
G1 X134.362 Y57.962 E0.57073
G1 X134.095 Y58.229 E0.01185
G1 X121.239 Y45.374 E0.57073
G1 X120.972 Y45.641 E0.01185
G1 X133.828 Y58.496 E0.57073
G1 X133.561 Y58.763 E0.01185
G1 X120.706 Y45.908 E0.57073
G1 X120.439 Y46.175 E0.01185
G1 X133.294 Y59.030 E0.57073
G1 X133.027 Y59.297 E0.01185
G1 X120.172 Y46.442 E0.57073
G1 X119.905 Y46.709 E0.01185
G1 X132.760 Y59.564 E0.57073
G1 X132.493 Y59.831 E0.01185
G1 X119.638 Y46.975 E0.57073
G1 X119.371 Y47.242 E0.01185
M73 P7 R49
G1 X132.226 Y60.098 E0.57073
G1 X131.959 Y60.365 E0.01185
G1 X119.104 Y47.509 E0.57073
G1 X118.837 Y47.776 E0.01185
G1 X131.692 Y60.632 E0.57073
G1 X131.425 Y60.899 E0.01185
G1 X118.570 Y48.043 E0.57073
G1 X118.303 Y48.310 E0.01185
G1 X131.158 Y61.166 E0.57073
G1 X130.891 Y61.433 E0.01185
G1 X118.036 Y48.577 E0.57073
G1 X117.769 Y48.844 E0.01185
G1 X130.624 Y61.700 E0.57073
G1 X130.357 Y61.967 E0.01185
G1 X117.502 Y49.111 E0.57073
G1 X117.235 Y49.378 E0.01185
G1 X130.090 Y62.234 E0.57073
M73 P7 R48
G1 X129.823 Y62.501 E0.01185
G1 X116.968 Y49.645 E0.57073
G1 X116.701 Y49.912 E0.01185
G1 X129.556 Y62.767 E0.57073
G1 X129.289 Y63.034 E0.01185
G1 X116.434 Y50.179 E0.57073
G1 X116.167 Y50.446 E0.01185
G1 X129.022 Y63.301 E0.57073
G1 X128.756 Y63.568 E0.01185
G1 X115.900 Y50.713 E0.57073
G1 X115.633 Y50.980 E0.01185
G1 X128.489 Y63.835 E0.57073
G1 X128.222 Y64.102 E0.01185
G1 X115.366 Y51.247 E0.57073
G1 X115.099 Y51.514 E0.01185
G1 X127.955 Y64.369 E0.57073
G1 X127.688 Y64.636 E0.01185
G1 X114.832 Y51.781 E0.57073
G1 X114.565 Y52.048 E0.01185
G1 X127.421 Y64.903 E0.57073
G1 X127.154 Y65.170 E0.01185
G1 X114.298 Y52.315 E0.57073
G1 X114.031 Y52.582 E0.01185
G1 X126.887 Y65.437 E0.57073
G1 X126.620 Y65.704 E0.01185
G1 X113.764 Y52.849 E0.57073
G1 X113.497 Y53.116 E0.01185
G1 X126.353 Y65.971 E0.57073
G1 X126.086 Y66.238 E0.01185
G1 X113.230 Y53.383 E0.57073
G1 X112.964 Y53.650 E0.01185
G1 X125.819 Y66.505 E0.57073
G1 X125.552 Y66.772 E0.01185
G1 X112.697 Y53.917 E0.57073
G1 X112.430 Y54.184 E0.01185
G1 X125.285 Y67.039 E0.57073
G1 X125.018 Y67.306 E0.01185
G1 X112.163 Y54.451 E0.57073
G1 X111.896 Y54.717 E0.01185
G1 X124.751 Y67.573 E0.57073
G1 X124.484 Y67.840 E0.01185
G1 X111.629 Y54.984 E0.57073
G1 X111.362 Y55.251 E0.01185
G1 X124.217 Y68.107 E0.57073
G1 X123.950 Y68.374 E0.01185
G1 X111.095 Y55.518 E0.57073
G1 X110.828 Y55.785 E0.01185
G1 X123.683 Y68.641 E0.57073
G1 X123.416 Y68.908 E0.01185
G1 X110.561 Y56.052 E0.57073
M73 P8 R48
G1 X110.294 Y56.319 E0.01185
G1 X123.149 Y69.175 E0.57073
G1 X122.882 Y69.442 E0.01185
G1 X110.027 Y56.586 E0.57073
G1 X109.760 Y56.853 E0.01185
G1 X122.615 Y69.709 E0.57073
G1 X122.348 Y69.976 E0.01185
G1 X109.493 Y57.120 E0.57073
G1 X109.226 Y57.387 E0.01185
G1 X122.081 Y70.243 E0.57073
G1 X121.814 Y70.509 E0.01185
G1 X108.959 Y57.654 E0.57073
G1 X108.692 Y57.921 E0.01185
G1 X121.547 Y70.776 E0.57073
G1 X121.280 Y71.043 E0.01185
G1 X108.425 Y58.188 E0.57073
G1 X108.158 Y58.455 E0.01185
G1 X121.014 Y71.310 E0.57073
G1 X120.747 Y71.577 E0.01185
G1 X107.891 Y58.722 E0.57073
G1 X107.624 Y58.989 E0.01185
G1 X120.480 Y71.844 E0.57073
G1 X120.213 Y72.111 E0.01185
G1 X107.357 Y59.256 E0.57073
G1 X107.090 Y59.523 E0.01185
G1 X119.946 Y72.378 E0.57073
G1 X119.679 Y72.645 E0.01185
G1 X106.823 Y59.790 E0.57073
G1 X106.556 Y60.057 E0.01185
G1 X119.412 Y72.912 E0.57073
G1 X119.145 Y73.179 E0.01185
G1 X106.289 Y60.324 E0.57073
G1 X106.022 Y60.591 E0.01185
G1 X118.878 Y73.446 E0.57073
G1 X118.611 Y73.713 E0.01185
G1 X105.755 Y60.858 E0.57073
G1 X105.488 Y61.125 E0.01185
G1 X118.344 Y73.980 E0.57073
G1 X118.077 Y74.247 E0.01185
G1 X105.222 Y61.392 E0.57073
G1 X104.955 Y61.659 E0.01185
G1 X117.810 Y74.514 E0.57073
G1 X117.543 Y74.781 E0.01185
G1 X104.688 Y61.926 E0.57073
G1 X104.421 Y62.193 E0.01185
G1 X117.276 Y75.048 E0.57073
G1 X117.009 Y75.315 E0.01185
G1 X104.154 Y62.459 E0.57073
G1 X103.887 Y62.726 E0.01185
G1 X116.742 Y75.582 E0.57073
G1 X116.475 Y75.849 E0.01185
G1 X103.620 Y62.993 E0.57073
G1 X103.353 Y63.260 E0.01185
G1 X116.208 Y76.116 E0.57073
G1 X115.941 Y76.383 E0.01185
G1 X103.086 Y63.527 E0.57073
G1 X102.819 Y63.794 E0.01185
G1 X115.674 Y76.650 E0.57073
G1 X115.407 Y76.917 E0.01185
G1 X102.552 Y64.061 E0.57073
G1 X102.285 Y64.328 E0.01185
G1 X115.140 Y77.184 E0.57073
G1 X114.873 Y77.451 E0.01185
G1 X102.018 Y64.595 E0.57073
G1 X101.751 Y64.862 E0.01185
G1 X114.606 Y77.718 E0.57073
M73 P9 R48
G1 X114.339 Y77.985 E0.01185
G1 X101.484 Y65.129 E0.57073
G1 X101.217 Y65.396 E0.01185
G1 X114.072 Y78.251 E0.57073
G1 X113.805 Y78.518 E0.01185
G1 X100.950 Y65.663 E0.57073
G1 X100.683 Y65.930 E0.01185
G1 X113.538 Y78.785 E0.57073
G1 X113.272 Y79.052 E0.01185
G1 X100.416 Y66.197 E0.57073
G1 X100.149 Y66.464 E0.01185
G1 X113.005 Y79.319 E0.57073
M73 P9 R47
