; generated by PrusaSlicer 2.3.1+linux-x64 on 2021-06-10 at 10:29:02 UTC


;
;

;
;
; 

; external perimeters extrusion width = 0.45mm
; perimeters extrusion width = 0.45mm
; infill extrusion width = 0.45mm
; solid infill extrusion width = 0.45mm
; top infill extrusion width = 0.40mm
; first layer extrusion width = 0.42mm

M73 P0 R44
M201 X1250 Y1250 Z400 E5000 ; sets maximum accelerations, mm/sec^2
M203 X180 Y180 Z12 E80 ; sets maximum feedrates, mm/sec
M204 P1250 R1250 T1250 ; sets acceleration (P, T) and retract acceleration (R), mm/sec^2
M205 X8.00 Y8.00 Z2.00 E10.00 ; sets the jerk limits, mm/sec
M205 S0 T0 ; sets the minimum extruding and travel feed rate, mm/sec
M107
;TYPE:Custom
G90 ; use absolute coordinates
M83 ; extruder relative mode
M104 S170 ; set extruder temp for bed leveling
M140 S60 ; set bed temp
M109 R170 ; wait for bed leveling temp
M190 S60 ; wait for bed temp
G28 ; home all without mesh bed level
G29 ; mesh bed leveling 
M104 S215 ; set extruder temp
G92 E0.0
G1 Y-2.0 X179 F2400
G1 Z3 F720
M109 S215 ; wait for extruder temp

; intro line
G1 X170 F1000
G1 Z0.2 F720
G1 X110.0 E8.0 F900
G1 X40.0 E10.0 F700
G92 E0.0

M221 S95 ; set flow
G21 ; set units to millimeters
G90 ; use absolute coordinates
M83 ; use relative distances for extrusion
M900 K0.2 ; Filament gcode LA 1.5
; ; Filament gcode LA 1.0
;LAYER_CHANGE
;Z:0.2
;HEIGHT:0.2
;BEFORE_LAYER_CHANGE
G92 E0.0
;0.2


G1 E-3.20000 F4200.000
G1 Z0.200 F9000.000
;AFTER_LAYER_CHANGE
;0.2
; printing object SpaceCenter Rocket.stl id:0 copy 0
G1 Z0.400
G1 X91.432 Y82.733
G1 Z0.200
G1 E3.20000 F2400.000
M204 S800
;TYPE:Perimeter
;WIDTH:0.42
G1 F1200.000
G1 X98.601 Y82.733 E0.22475
G1 X98.601 Y94.472 E0.36807
G1 X91.432 Y94.472 E0.22475
G1 X91.432 Y82.793 E0.36619
M204 S1250
G1 X91.809 Y83.110 F9000.000
M204 S800
;TYPE:External perimeter
G1 F1200.000
G1 X98.224 Y83.110 E0.20111
G1 X98.224 Y94.095 E0.34443
G1 X91.809 Y94.095 E0.20111
G1 X91.809 Y83.170 E0.34255
M204 S1250
G1 X91.739 Y82.716 F9000.000
G1 E-2.24000 F4200.000
;WIPE_START
G1 F7200.000
G1 X93.455 Y83.155 E-0.91200
;WIPE_END
G1 E-0.04800 F4200.000
G1 Z0.400 F9000.000
G1 X106.040 Y62.212
G1 Z0.200
G1 E3.20000 F2400.000
M204 S800
;TYPE:Perimeter
G1 F1200.000
G1 X106.040 Y117.788 E1.74254
G1 X73.960 Y117.788 E1.00587
G1 X73.960 Y62.212 E1.74254
M73 P1 R44
G1 X105.980 Y62.212 E1.00399
M204 S1250
G1 X106.418 Y61.835 F9000.000
M204 S800
;TYPE:External perimeter
G1 F1200.000
G1 X106.418 Y118.165 E1.76619
G1 X73.582 Y118.165 E1.02952
G1 X73.582 Y61.835 E1.76619
G1 X106.358 Y61.835 E1.02764
M204 S1250
G1 X106.347 Y62.229 F9000.000
G1 X105.927 Y63.091
M204 S800
;TYPE:Solid infill
;WIDTH:0.421545
G1 F1200.000
G1 X105.331 Y62.495 E0.02653
G1 X104.796 Y62.495 E0.01686
G1 X105.758 Y63.457 E0.04282
G1 X105.758 Y63.992 E0.01686
G1 X104.261 Y62.495 E0.06666
G1 X103.725 Y62.495 E0.01686
G1 X105.758 Y64.527 E0.09050
G1 X105.758 Y65.063 E0.01686
G1 X103.190 Y62.495 E0.11434
G1 X102.654 Y62.495 E0.01686
G1 X105.758 Y65.598 E0.13818
G1 X105.758 Y66.134 E0.01686
G1 X102.119 Y62.495 E0.16202
G1 X101.583 Y62.495 E0.01686
G1 X105.758 Y66.669 E0.18586
G1 X105.758 Y67.205 E0.01686
G1 X101.048 Y62.495 E0.20970
G1 X100.512 Y62.495 E0.01686
G1 X105.758 Y67.740 E0.23354
G1 X105.758 Y68.276 E0.01686
G1 X99.977 Y62.495 E0.25738
G1 X99.441 Y62.495 E0.01686
G1 X105.758 Y68.811 E0.28122
G1 X105.758 Y69.347 E0.01686
G1 X98.906 Y62.495 E0.30506
G1 X98.371 Y62.495 E0.01686
G1 X105.758 Y69.882 E0.32890
G1 X105.758 Y70.417 E0.01686
G1 X97.835 Y62.495 E0.35274
G1 X97.300 Y62.495 E0.01686
G1 X105.758 Y70.953 E0.37658
G1 X105.758 Y71.488 E0.01686
G1 X96.764 Y62.495 E0.40042
G1 X96.229 Y62.495 E0.01686
G1 X105.758 Y72.024 E0.42426
G1 X105.758 Y72.559 E0.01686
G1 X95.693 Y62.495 E0.44810
G1 X95.158 Y62.495 E0.01686
G1 X105.758 Y73.095 E0.47194
G1 X105.758 Y73.630 E0.01686
G1 X94.622 Y62.495 E0.49578
G1 X94.087 Y62.495 E0.01686
G1 X105.758 Y74.166 E0.51962
G1 X105.758 Y74.701 E0.01686
G1 X93.551 Y62.495 E0.54346
G1 X93.016 Y62.495 E0.01686
G1 X105.758 Y75.237 E0.56730
G1 X105.758 Y75.772 E0.01686
G1 X92.480 Y62.495 E0.59114
M73 P1 R43
G1 X91.945 Y62.495 E0.01686
G1 X105.758 Y76.307 E0.61498
G1 X105.758 Y76.843 E0.01686
G1 X91.410 Y62.495 E0.63882
M73 P2 R43
G1 X90.874 Y62.495 E0.01686
G1 X105.758 Y77.378 E0.66266
G1 X105.758 Y77.914 E0.01686
G1 X90.339 Y62.495 E0.68650
G1 X89.803 Y62.495 E0.01686
G1 X105.758 Y78.449 E0.71035
G1 X105.758 Y78.985 E0.01686
G1 X89.268 Y62.495 E0.73419
G1 X88.732 Y62.495 E0.01686
G1 X105.758 Y79.520 E0.75803
G1 X105.758 Y80.056 E0.01686
G1 X88.197 Y62.495 E0.78187
G1 X87.661 Y62.495 E0.01686
G1 X105.758 Y80.591 E0.80571
G1 X105.758 Y81.127 E0.01686
G1 X87.126 Y62.495 E0.82955
G1 X86.590 Y62.495 E0.01686
G1 X105.758 Y81.662 E0.85339
G1 X105.758 Y82.197 E0.01686
G1 X86.055 Y62.495 E0.87723
G1 X85.520 Y62.495 E0.01686
G1 X105.758 Y82.733 E0.90107
G1 X105.758 Y83.268 E0.01686
G1 X84.984 Y62.495 E0.92491
G1 X84.449 Y62.495 E0.01686
G1 X105.758 Y83.804 E0.94875
G1 X105.758 Y84.339 E0.01686
G1 X83.913 Y62.495 E0.97259
G1 X83.378 Y62.495 E0.01686
G1 X105.758 Y84.875 E0.99643
G1 X105.758 Y85.410 E0.01686
G1 X82.842 Y62.495 E1.02027
G1 X82.307 Y62.495 E0.01686
G1 X105.758 Y85.946 E1.04411
G1 X105.758 Y86.481 E0.01686
G1 X81.771 Y62.495 E1.06795
G1 X81.236 Y62.495 E0.01686
G1 X105.758 Y87.017 E1.09179
M73 P3 R43
G1 X105.758 Y87.552 E0.01686
G1 X80.700 Y62.495 E1.11563
G1 X80.165 Y62.495 E0.01686
G1 X105.758 Y88.088 E1.13947
G1 X105.758 Y88.623 E0.01686
G1 X79.630 Y62.495 E1.16331
G1 X79.094 Y62.495 E0.01686
G1 X105.758 Y89.158 E1.18715
G1 X105.758 Y89.694 E0.01686
G1 X98.883 Y82.820 E0.30606
G1 X98.883 Y82.450 E0.01163
G1 X98.514 Y82.450 E0.01163
G1 X78.559 Y62.495 E0.88848
G1 X78.023 Y62.495 E0.01686
G1 X97.978 Y82.450 E0.88848
G1 X97.443 Y82.450 E0.01686
G1 X77.488 Y62.495 E0.88848
G1 X76.952 Y62.495 E0.01686
G1 X96.907 Y82.450 E0.88848
G1 X96.372 Y82.450 E0.01686
G1 X76.417 Y62.495 E0.88848
G1 X75.881 Y62.495 E0.01686
G1 X95.837 Y82.450 E0.88848
G1 X95.301 Y82.450 E0.01686
G1 X75.346 Y62.495 E0.88848
G1 X74.810 Y62.495 E0.01686
G1 X94.766 Y82.450 E0.88848
G1 X94.230 Y82.450 E0.01686
G1 X74.275 Y62.495 E0.88848
G1 X74.242 Y62.495 E0.00103
G1 X74.242 Y62.998 E0.01583
G1 X93.695 Y82.450 E0.86609
G1 X93.159 Y82.450 E0.01686
G1 X74.242 Y63.533 E0.84225
G1 X74.242 Y64.069 E0.01686
G1 X92.624 Y82.450 E0.81841
G1 X92.088 Y82.450 E0.01686
G1 X74.242 Y64.604 E0.79456
M73 P4 R43
G1 X74.242 Y65.140 E0.01686
G1 X91.553 Y82.450 E0.77072
G1 X91.150 Y82.450 E0.01270
G1 X91.150 Y82.582 E0.00416
G1 X74.242 Y65.675 E0.75277
G1 X74.242 Y66.210 E0.01686
G1 X91.150 Y83.118 E0.75277
M73 P4 R42
G1 X91.150 Y83.653 E0.01686
G1 X74.242 Y66.746 E0.75277
G1 X74.242 Y67.281 E0.01686
G1 X91.150 Y84.189 E0.75277
G1 X91.150 Y84.724 E0.01686
G1 X74.242 Y67.817 E0.75277
G1 X74.242 Y68.352 E0.01686
G1 X91.150 Y85.260 E0.75277
G1 X91.150 Y85.795 E0.01686
G1 X74.242 Y68.888 E0.75277
G1 X74.242 Y69.423 E0.01686
G1 X91.150 Y86.330 E0.75277
G1 X91.150 Y86.866 E0.01686
G1 X74.242 Y69.959 E0.75277
G1 X74.242 Y70.494 E0.01686
G1 X91.150 Y87.401 E0.75277
G1 X91.150 Y87.937 E0.01686
G1 X74.242 Y71.030 E0.75277
G1 X74.242 Y71.565 E0.01686
G1 X91.150 Y88.472 E0.75277
G1 X91.150 Y89.008 E0.01686
G1 X74.242 Y72.101 E0.75277
G1 X74.242 Y72.636 E0.01686
G1 X91.150 Y89.543 E0.75277
G1 X91.150 Y90.079 E0.01686
G1 X74.242 Y73.171 E0.75277
G1 X74.242 Y73.707 E0.01686
G1 X91.150 Y90.614 E0.75277
G1 X91.150 Y91.150 E0.01686
G1 X74.242 Y74.242 E0.75277
G1 X74.242 Y74.778 E0.01686
G1 X91.150 Y91.685 E0.75277
G1 X91.150 Y92.220 E0.01686
G1 X74.242 Y75.313 E0.75277
G1 X74.242 Y75.849 E0.01686
G1 X91.150 Y92.756 E0.75277
M73 P5 R42
G1 X91.150 Y93.291 E0.01686
G1 X74.242 Y76.384 E0.75277
G1 X74.242 Y76.920 E0.01686
G1 X91.319 Y93.997 E0.76032
M204 S1250
G1 E-2.24000 F4200.000
;WIPE_START
G1 F7200.000
G1 X90.156 Y92.833 E-0.91200
;WIPE_END
G1 E-0.04800 F4200.000
G1 Z0.400 F9000.000
G1 X98.714 Y83.185
G1 Z0.200
G1 E3.20000 F2400.000
M204 S800
G1 F1200.000
G1 X105.758 Y90.229 E0.31362
G1 X105.758 Y90.765 E0.01686
G1 X98.883 Y83.891 E0.30606
G1 X98.883 Y84.426 E0.01686
G1 X105.758 Y91.300 E0.30606
G1 X105.758 Y91.836 E0.01686
G1 X98.883 Y84.961 E0.30606
G1 X98.883 Y85.497 E0.01686
G1 X105.758 Y92.371 E0.30606
G1 X105.758 Y92.907 E0.01686
G1 X98.883 Y86.032 E0.30606
G1 X98.883 Y86.568 E0.01686
G1 X105.758 Y93.442 E0.30606
G1 X105.758 Y93.978 E0.01686
G1 X98.883 Y87.103 E0.30606
G1 X98.883 Y87.639 E0.01686
G1 X105.758 Y94.513 E0.30606
G1 X105.758 Y95.048 E0.01686
G1 X98.883 Y88.174 E0.30606
G1 X98.883 Y88.710 E0.01686
G1 X105.758 Y95.584 E0.30606
G1 X105.758 Y96.119 E0.01686
G1 X98.883 Y89.245 E0.30606
G1 X98.883 Y89.781 E0.01686
G1 X105.758 Y96.655 E0.30606
G1 X105.758 Y97.190 E0.01686
G1 X98.883 Y90.316 E0.30606
G1 X98.883 Y90.851 E0.01686
G1 X105.758 Y97.726 E0.30606
G1 X105.758 Y98.261 E0.01686
G1 X98.883 Y91.387 E0.30606
G1 X98.883 Y91.922 E0.01686
G1 X105.758 Y98.797 E0.30606
G1 X105.758 Y99.332 E0.01686
G1 X98.883 Y92.458 E0.30606
G1 X98.883 Y92.993 E0.01686
G1 X105.758 Y99.868 E0.30606
G1 X105.758 Y100.403 E0.01686
G1 X98.883 Y93.529 E0.30606
G1 X98.883 Y94.064 E0.01686
G1 X105.758 Y100.938 E0.30606
G1 X105.758 Y101.474 E0.01686
G1 X98.883 Y94.600 E0.30606
G1 X98.883 Y94.755 E0.00489
G1 X98.503 Y94.755 E0.01197
G1 X105.758 Y102.009 E0.32300
G1 X105.758 Y102.545 E0.01686
G1 X97.968 Y94.755 E0.34684
G1 X97.432 Y94.755 E0.01686
G1 X105.758 Y103.080 E0.37068
G1 X105.758 Y103.616 E0.01686
G1 X96.897 Y94.755 E0.39452
G1 X96.361 Y94.755 E0.01686
G1 X105.758 Y104.151 E0.41836
G1 X105.758 Y104.687 E0.01686
G1 X95.826 Y94.755 E0.44220
G1 X95.290 Y94.755 E0.01686
G1 X105.758 Y105.222 E0.46604
G1 X105.758 Y105.758 E0.01686
G1 X94.755 Y94.755 E0.48988
G1 X94.219 Y94.755 E0.01686
G1 X105.758 Y106.293 E0.51372
G1 X105.758 Y106.828 E0.01686
G1 X93.684 Y94.755 E0.53756
G1 X93.149 Y94.755 E0.01686
G1 X105.758 Y107.364 E0.56140
G1 X105.758 Y107.899 E0.01686
G1 X92.613 Y94.755 E0.58524
G1 X92.078 Y94.755 E0.01686
G1 X105.758 Y108.435 E0.60908
G1 X105.758 Y108.970 E0.01686
G1 X91.542 Y94.755 E0.63292
G1 X91.150 Y94.755 E0.01236
G1 X91.150 Y94.362 E0.01236
G1 X74.242 Y77.455 E0.75277
M73 P6 R42
G1 X74.242 Y77.991 E0.01686
G1 X105.758 Y109.506 E1.40317
G1 X105.758 Y110.041 E0.01686
G1 X74.242 Y78.526 E1.40317
G1 X74.242 Y79.061 E0.01686
G1 X105.758 Y110.577 E1.40317
G1 X105.758 Y111.112 E0.01686
G1 X74.242 Y79.597 E1.40317
G1 X74.242 Y80.132 E0.01686
G1 X105.758 Y111.648 E1.40317
M73 P6 R41
G1 X105.758 Y112.183 E0.01686
G1 X74.242 Y80.668 E1.40317
G1 X74.242 Y81.203 E0.01686
G1 X105.758 Y112.719 E1.40317
G1 X105.758 Y113.254 E0.01686
G1 X74.242 Y81.739 E1.40317
G1 X74.242 Y82.274 E0.01686
G1 X105.758 Y113.789 E1.40317
G1 X105.758 Y114.325 E0.01686
G1 X74.242 Y82.810 E1.40317
G1 X74.242 Y83.345 E0.01686
G1 X105.758 Y114.860 E1.40317
G1 X105.758 Y115.396 E0.01686
G1 X74.242 Y83.881 E1.40317
M73 P7 R41
G1 X74.242 Y84.416 E0.01686
G1 X105.758 Y115.931 E1.40317
G1 X105.758 Y116.467 E0.01686
G1 X74.242 Y84.951 E1.40317
G1 X74.242 Y85.487 E0.01686
G1 X105.758 Y117.002 E1.40317
G1 X105.758 Y117.505 E0.01583
G1 X105.725 Y117.505 E0.00102
G1 X74.242 Y86.022 E1.40172
G1 X74.242 Y86.558 E0.01686
G1 X105.190 Y117.505 E1.37788
G1 X104.654 Y117.505 E0.01686
G1 X74.242 Y87.093 E1.35404
G1 X74.242 Y87.629 E0.01686
G1 X104.119 Y117.505 E1.33020
G1 X103.583 Y117.505 E0.01686
G1 X74.242 Y88.164 E1.30636
G1 X74.242 Y88.700 E0.01686
G1 X103.048 Y117.505 E1.28252
G1 X102.512 Y117.505 E0.01686
G1 X74.242 Y89.235 E1.25868
G1 X74.242 Y89.771 E0.01686
G1 X101.977 Y117.505 E1.23484
G1 X101.441 Y117.505 E0.01686
G1 X74.242 Y90.306 E1.21100
M73 P8 R41
G1 X74.242 Y90.841 E0.01686
G1 X100.906 Y117.505 E1.18716
G1 X100.371 Y117.505 E0.01686
G1 X74.242 Y91.377 E1.16332
G1 X74.242 Y91.912 E0.01686
G1 X99.835 Y117.505 E1.13947
G1 X99.300 Y117.505 E0.01686
G1 X74.242 Y92.448 E1.11563
G1 X74.242 Y92.983 E0.01686
G1 X98.764 Y117.505 E1.09179
G1 X98.229 Y117.505 E0.01686
G1 X74.242 Y93.519 E1.06795
G1 X74.242 Y94.054 E0.01686
G1 X97.693 Y117.505 E1.04411
G1 X97.158 Y117.505 E0.01686
G1 X74.242 Y94.590 E1.02027
G1 X74.242 Y95.125 E0.01686
G1 X96.622 Y117.505 E0.99643
G1 X96.087 Y117.505 E0.01686
G1 X74.242 Y95.661 E0.97259
M73 P8 R40
G1 X74.242 Y96.196 E0.01686
G1 X95.551 Y117.505 E0.94875
G1 X95.016 Y117.505 E0.01686
G1 X74.242 Y96.732 E0.92491
G1 X74.242 Y97.267 E0.01686
G1 X94.481 Y117.505 E0.90107
G1 X93.945 Y117.505 E0.01686
G1 X74.242 Y97.802 E0.87723
G1 X74.242 Y98.338 E0.01686
G1 X93.410 Y117.505 E0.85339
G1 X92.874 Y117.505 E0.01686
G1 X74.242 Y98.873 E0.82955
M73 P9 R40
G1 X74.242 Y99.409 E0.01686
G1 X92.339 Y117.505 E0.80571
G1 X91.803 Y117.505 E0.01686
G1 X74.242 Y99.944 E0.78187
G1 X74.242 Y100.480 E0.01686
G1 X91.268 Y117.505 E0.75803
G1 X90.732 Y117.505 E0.01686
G1 X74.242 Y101.015 E0.73419
G1 X74.242 Y101.551 E0.01686
G1 X90.197 Y117.505 E0.71035
G1 X89.661 Y117.505 E0.01686
G1 X74.242 Y102.086 E0.68651
G1 X74.242 Y102.622 E0.01686
G1 X89.126 Y117.505 E0.66267
G1 X88.591 Y117.505 E0.01686
G1 X74.242 Y103.157 E0.63883
G1 X74.242 Y103.692 E0.01686
G1 X88.055 Y117.505 E0.61499
G1 X87.520 Y117.505 E0.01686
G1 X74.242 Y104.228 E0.59115
G1 X74.242 Y104.763 E0.01686
G1 X86.984 Y117.505 E0.56731
G1 X86.449 Y117.505 E0.01686
G1 X74.242 Y105.299 E0.54347
G1 X74.242 Y105.834 E0.01686
G1 X85.913 Y117.505 E0.51963
G1 X85.378 Y117.505 E0.01686
G1 X74.242 Y106.370 E0.49579
G1 X74.242 Y106.905 E0.01686
G1 X84.842 Y117.505 E0.47195
G1 X84.307 Y117.505 E0.01686
G1 X74.242 Y107.441 E0.44810
G1 X74.242 Y107.976 E0.01686
G1 X83.771 Y117.505 E0.42426
G1 X83.236 Y117.505 E0.01686
G1 X74.242 Y108.512 E0.40042
G1 X74.242 Y109.047 E0.01686
G1 X82.700 Y117.505 E0.37658
G1 X82.165 Y117.505 E0.01686
G1 X74.242 Y109.582 E0.35274
G1 X74.242 Y110.118 E0.01686
G1 X81.630 Y117.505 E0.32890
G1 X81.094 Y117.505 E0.01686
G1 X74.242 Y110.653 E0.30506
G1 X74.242 Y111.189 E0.01686
G1 X80.559 Y117.505 E0.28122
G1 X80.023 Y117.505 E0.01686
G1 X74.242 Y111.724 E0.25738
G1 X74.242 Y112.260 E0.01686
G1 X79.488 Y117.505 E0.23354
G1 X78.952 Y117.505 E0.01686
G1 X74.242 Y112.795 E0.20970
G1 X74.242 Y113.331 E0.01686
G1 X78.417 Y117.505 E0.18586
G1 X77.881 Y117.505 E0.01686
G1 X74.242 Y113.866 E0.16202
G1 X74.242 Y114.402 E0.01686
G1 X77.346 Y117.505 E0.13818
G1 X76.810 Y117.505 E0.01686
G1 X74.242 Y114.937 E0.11434
G1 X74.242 Y115.472 E0.01686
G1 X76.275 Y117.505 E0.09050
G1 X75.740 Y117.505 E0.01686
G1 X74.242 Y116.008 E0.06666
G1 X74.242 Y116.543 E0.01686
G1 X75.204 Y117.505 E0.04282
G1 X74.669 Y117.505 E0.01686
G1 X74.073 Y116.909 E0.02653
M204 S1250
; stop printing object SpaceCenter Rocket.stl id:0 copy 0
M106 S84.15
;LAYER_CHANGE
;Z:0.4
;HEIGHT:0.2
;BEFORE_LAYER_CHANGE
G92 E0.0
;0.4


G1 E-2.24000 F4200.000
;WIPE_START
G1 F7200.000
G1 X74.669 Y117.505 E-0.46705
G1 X75.204 Y117.505 E-0.29673
G1 X75.015 Y117.316 E-0.14822
;WIPE_END
G1 E-0.04800 F4200.000
G1 Z0.400 F9000.000
;AFTER_LAYER_CHANGE
;0.4
M104 S210 ; set temperature
; printing object SpaceCenter Rocket.stl id:0 copy 0
G1 Z0.600
G1 X91.587 Y94.317
G1 Z0.400
G1 E3.20000 F2400.000
M204 S800
;TYPE:Perimeter
;WIDTH:0.45
G1 F1500.000
G1 X91.587 Y82.888 E0.38686
G1 X98.446 Y82.888 E0.23214
G1 X98.446 Y94.317 E0.38686
G1 X91.647 Y94.317 E0.23011
M204 S1250
G1 X91.995 Y93.910 F9000.000
M204 S800
;TYPE:External perimeter
G1 F1500.000
G1 X91.995 Y83.295 E0.35931
M73 P10 R40
G1 X98.038 Y83.295 E0.20458
G1 X98.038 Y93.910 E0.35931
G1 X92.055 Y93.910 E0.20255
M204 S1250
G1 X91.619 Y94.048 F9000.000
G1 E-2.24000 F4200.000
;WIPE_START
G1 F7200.000
G1 X92.045 Y92.264 E-0.91200
;WIPE_END
G1 E-0.04800 F4200.000
G1 Z0.600 F9000.000
G1 X106.195 Y117.943
G1 Z0.400
G1 E3.20000 F2400.000
M204 S800
;TYPE:Perimeter
G1 X73.805 Y117.943 E1.09639
G1 X73.805 Y62.057 E1.89167
G1 X106.195 Y62.057 E1.09639
G1 X106.195 Y117.883 E1.88964
M204 S1250
G1 X106.602 Y118.350 F9000.000
M204 S800
;TYPE:External perimeter
G1 F1800.000
G1 X73.397 Y118.350 E1.12395
G1 X73.397 Y61.650 E1.91923
G1 X106.602 Y61.650 E1.12395
G1 X106.602 Y118.290 E1.91720
M204 S1250
G1 X106.226 Y118.214 F9000.000
G1 X105.247 Y117.821
M204 S1000
